!!!!SEGMENT: pl-sa--569-a-ix-49--001_anonim--menuet-z-wariacjami.krn
!!!cenid: 18xx:600
!!!COM: Anonim
!!!COM-rismID: pe30004985
!!!CDT:
!!!CNT:
!!!OTL: Menuet z wariacjami
!!!PDT:
!!!AGN: Secular; Minuet; Variations
!!!SMS-siglum: PL-SA
!!!SMS-shelfmark: 569/A IX 49
!!!SMS-shelfwork: 001 W
!!!SMS-variant:
!!!SMS-altvar:
!!!NIFC-rismSourceID: 1001077522
!!!NIFC-rismChildID: 1001077522
!!!NIFC-islandoraID: none
!!!URL-pdf-islandora:
!!!URL-scan: https://bc.bdsandomierz.pl/dlibra/publication/1324/edition/1292/content @EN{Scan in the Sandomierz Diocese Digital Library} @PL{Skany w portalu Cyfrowa Biblioteka Diecezjalna w Sandomierzu}
!!!IIIF:
!!!ONB-nifc: Str. 1-5
!!!AIN: 1 piano
!!!key:
**kern	**kern
*part1	*part1
*staff2	*staff1
*Ipiano	*Iempty
*I"Piano	*
*I'Pno.	*
*clefF4	*clefG2
*k[b-e-a-]	*k[b-e-a-]
*E-:	*E-:
*M3/4	*M3/4
=1	=1
!	!LO:TX:rj:a:t=Menuetto
4E-\	2e-/
4G\	.
.	8qqg/
4B-\	8.f/L
.	32e-/LL
.	32f/JJJ
=2	=2
4E-\	2e-/
4G\	.
.	8qqg/
4B-\	8.f/L
.	32e-/LL
.	32f/JJJ
=3	=3
4E-\	8.g/L
.	16b-/Jk
4G\	4e-/
.	8qqg/
4B-\	8.f/L
.	32e-/LL
.	32f/JJJ
=4	=4
.	8qqf/
4E-\	[4e-/
4G\	8e-/L]
.	8g/
4E-\	8cc/
.	8ee-/J
=5	=5
*2\right	*
2B-\ 2BB-\	8.ee-\L
.	16dd\Jk
.	8b-/L
.	8g/J
4A-\ 4AA-\	8f/L
.	8cc/J
!!LO:LB:g=original
=6	=6
2G\ 2GG\	8.cc\L
.	16b-\Jk
.	8g/L
.	8e-/J
4F\ 4BB-\	8d/L
.	8a-/J
=7	=7
4E-\	8g/L
.	8b-/J 8g/
4r	8b-/L 8g/
.	8a-/J 8f/
8A-\L	8a-/L 8f/
8An\J	8g/J 8e-/
=8	=8
4B-\	(2g/ 2e-/
4F\	.
4BB-/	4f/ 4d/)
=9:|!|:;	=9:|!|:;
*	*2\right
4B-\	2b-\
4d\	.
.	8qqdd/
4f\	8cc\L
.	16b-\L
.	16cc\JJ
=10	=10
4B-\	2b-\
4d\	.
.	8qqdd/
4f\	8cc\L
.	16b-\L
.	16cc\JJ
=11	=11
4B-\	8.dd\L
.	16ff\Jk
4f\	4b-\
.	8qqdd/
4F\	8cc\L
.	16b-\L
.	16cc\JJ
=12	=12
.	8qqcc/
4B-\	[4b-\
!	!LO:TX:a:t=P:problem=mixed beam
4BB-\	8b-\L]
.	8B-</
4r	8c</
.	8B-</J
!!LO:LB:g=original
=13	=13
!	!LO:TX:a:t=P:problem=mixed beam
4F\	8.A-/L
.	16f\Jk
4D\	4.f\
4BB-\	.
.	8A-</
=14	=14
!	!LO:TX:a:t=P:problem=mixed beam
2.E-\	8G</L
.	8B-</
.	8e-\
.	8g\
.	8b-\
.	8e-\J
=15	=15
4BB-/	8d/L
.	8a-/J
4F\	4.a-/
4D\	.
.	8f/
=16	=16
4E-\	8g\L
.	8b-\
4G\	8ee-\
.	8gg\
4E-\	8bb-\
.	8gg\J
=17	=17
2B-\ 2BB-\	8ee-\L
.	8dd\
.	8b-\
.	8g\
4A-\ 4AA-\	8f\
.	8cc\J
=18	=18
2G\ 2GG\	8cc\L
.	8b-\
.	8g\
.	8e-\
4F\ 4FF\	8d\
.	8a-\J
=19	=19
4E-\	8.g/L
.	16b-/Jk
4B-\	4e-/
4BB-/	8d/L
.	8f/J
=20	=20
.	8qqf/
4E-\	2.e-/
4BB-/	.
4EE-/	.
!!LO:LB:g=original
=21:|!|:;	=21:|!|:;
*clefF4	*clefG2
*k[b-e-a-]	*k[b-e-a-]
*M3/4	*M3/4
!	!LO:TX:rj:a:t=Vari&colon; 1mo
4E-\	8.g/L
.	16b-/Jk
4G\	4e-/
.	8qqf/
4B-\	8f/L
.	16e-/L
.	16f/JJ
=22	=22
4E-\	16g/LL
.	16b-/
.	16g/
.	16b-/JJ
4G\	4e-/
.	8qqg/
4B-\	8f/L
.	16e-/L
.	16f/JJ
=23	=23
4E-\	16g/LL
.	16b-/
.	16ee-/
.	16b-/JJ
4G\	16gg/LL
.	16ee-/
.	16b-/
.	16g/JJ
4B-\	16g/LL
.	16f/
.	16e-/
.	16f/JJ
=24	=24
4E-/	4e-/
4EE-/	16e-/LL
.	16f/
.	16g/
.	16a-/JJ
4r	16b-\LL
.	16cc\
.	16dd\
.	16ee-\JJ
=25	=25
2B-\ 2BB-\	16gg\LL
.	16ff\
.	16ee-\
.	16dd\JJ
!	!LO:LB:g=original
.	16cc\LL
.	16b-\
.	16a-\
.	16g\JJ
!LO:LB:g=original	!
4A-\ 4AA-\	16r
.	16f/LL
.	16a-/
.	16cc/JJ
=26	=26
2G\ 2GG\	16cc/LL
.	16b-/
.	16a-/
.	16g/JJ
.	16f/LL
.	16e-/
.	16d/
.	16e-/JJ
4F\ 4BB-\	16r
.	16f/LL
.	16a-/
.	16cc/JJ
=27	=27
4E-\	16g/LL
.	16b-/
.	16ee-/
.	16gg/JJ
4r	8bb-\L 8gg\
.	8aa-\ 8ff\
8D\L	8aa-\ 8ff\
8E-\J	8gg\J 8ee-\
=28	=28
*	*^
.	8qqgg/	8qqee-\
!LO:N:vis=x	!	!
4B-\	2.ff\	2.dd\
4F\	.	.
4BB-/	.	.
*	*v	*v
=29:|!|:;	=29:|!|:;
4B-\	8.dd\L
.	16ff\Jk
4d\	4b-\
.	8qqdd/
4f\ 4F\	8cc\L
.	16b-\L
.	16cc\JJ
=30	=30
4B-\	16dd\LL
.	16ff\
.	16dd\
.	16ff\JJ
4d\	4b-\
.	8qqdd/
4f\	8cc\L
.	16b-\L
.	16cc\JJ
=31	=31
4B-\	16dd\LL
.	16ff\
.	16bb-\
.	16ff\JJ
4d\	16ddd\LL
.	16bb-\
.	16ff\
.	16dd\JJ
4f\ 4F\	16dd\LL
.	16cc\
.	16b-\
.	16cc\JJ
!!LO:PB:g=original
=32	=32
.	8qqcc/
4B-\	4.b-\
4BB-/	.
.	8B-/L
4r	8c/
.	8B-/J
=33	=33
4F\	16r
.	16A-/LL
.	16G/
.	16A-/JJ
4D\	16B-/LL
.	16c/
.	16d/
.	16e-/JJ
4BB-\	16f/LL
.	16d/
.	16B-</
.	16A-</JJ
=34	=34
4E-\	16r<G
.	16G</LL
.	16A-</
.	16B-</JJ
4EE-/	16c/LL
.	16d/
.	16e-/
.	16f/JJ
4r	16g/LL
.	16e-/
.	16B-/
.	16G/JJ
=35	=35
4F\	16r<G
.	16A-</LL
.	16B-</
.	16c</JJ
4D\	16d/LL
.	16e-/
.	16f/
.	16g/JJ
4BB-/	16a-/LL
.	16f/
.	16d/
.	16A-</JJ
=36	=36
4E-\	16r<G
.	16G</LL
.	16B-</
.	16e-</JJ
4EE-/	16g/LL
.	16e-/
.	16g/
.	16b-/JJ
4r	16ee-\LL
.	16g\
.	16b-\
.	16ee-\JJ
=37	=37
2B-\ 2BB-\	16gg\LL
.	16ff\
.	16ee-\
.	16dd\JJ
.	16cc\LL
.	16b-\
.	16a-\
!!LO:LB:g=original
.	16g\JJ
4A-\ 4AA-\	16r
.	16f/LL
.	16a-/
.	16cc/JJ
=38	=38
2G/ 2GG/	16cc/LL
.	16b-/
.	16a-/
.	16g/JJ
.	16f/LL
.	16e-/
.	16d/
.	16e-/JJ
4F/ 4BB-/	16r
.	16d/LL
.	16f/
.	16a-/JJ
=39	=39
4E-\	16r
.	16g/LL
.	16b-/
.	16ee-/JJ
4B-\	8gg/L 8b-/
.	8ff/ 8a-/
4BB-/	8ee-/ 8g/
.	8dd/J 8f/
=40	=40
.	8qqdd/ 8qqf\
4E-\	2.ee-/ 2.g/
4BB-/	.
4EE-/	.
=41:|!|:;	=41:|!|:;
*clefF4	*clefG2
*k[b-e-a-]	*k[b-e-a-]
*M3/4	*M3/4
!	!LO:TX:a:t=Vari&colon; 2do
16E-\LL	4b-/ 4g/
16F\	.
16G\	.
16A-\JJ	.
16B-\LL	4g/ 4e-/
16G\	.
16F\	.
16E-\JJ	.
16BB-\LL	4a-/ 4f/
16D\	.
16F\	.
16B-\JJ	.
=42	=42
16E-\LL	4b-/ 4g/
16F\	.
16G\	.
16A-\JJ	.
16B-\LL	4g/ 4e-/
16G\	.
16F\	.
16E-\JJ	.
16BB-\LL	4a-/ 4f/
16D\	.
16F\	.
16B-\JJ	.
!!LO:LB:g=original
=43	=43
16E-\LL	4g/ 4e-/
16F\	.
16G\	.
16A-\JJ	.
16B-\LL	4r
16c\	.
16d\	.
16e-\JJ	.
4r	16g/LL
.	16b-/
.	16ee-/
.	16gg/JJ
=44	=44
8B-\L	4bb-/ 4gg/
8b->\J	.
8B-\L	16bb-/LL 16gg/
.	16aa-/ 16ff/
8b->\J	16gg/ 16ee-/
.	16aa-/JJ 16ff/
4e->\	4gg/ 4ee-/
=45	=45
2B-\ 2BB-\	16ff\LL
.	16ee-\
.	16dd\
.	16ee-\JJ
.	16gg\LL
.	16ff\
.	16ee-\
.	16dd\JJ
4A-X\ 4AA-\	16dd\LL
.	16cc\
.	16bn\
.	16cc\JJ
!!LO:LB:g=original
=46	=46
2G\ 2GG\	16cc\LL
.	16b-X\
.	16an\
.	16b-\JJ
.	16ee-\LL
.	16b-\
.	16a\
.	16b-\JJ
4F/ 4BB-/	16b-/LL
.	16a-X/
.	16g/
.	16a-/JJ
=47	=47
16E-\LL	16g/LL
16F\	16a-/
16G\	16b-/
16A-\JJ	16cc/JJ
16B-\LL	16dd\LL
16c\	16ee-\
16d\	16ff\
16e-\JJ	16gg\JJ
8g\L	16bb-\LL
.	16gg\
8e-\J	16bb-\
.	16eee-\JJ
=48	=48
4b->\	4gg/ 4ee-/
4B->\	4ff/ 4dd/
4r	4r
=49:|!|:;	=49:|!|:;
16B-\LL	4ff/ 4dd/
16c\	.
16d\	.
16e-\JJ	.
16f>\LL	4dd/ 4b-/
16d>\	.
16c>\	.
16B->\JJ	.
16F\LL	4ee-/ 4cc/
16An\	.
16c\	.
16f>\JJ	.
!!LO:LB:g=original
=50	=50
16B-\LL	4ff/ 4dd/
16c\	.
16d\	.
16e-\JJ	.
16f>\LL	4dd/ 4b-/
16d>\	.
16c\	.
16B-\JJ	.
16F\LL	4ee-/ 4cc/
16A-\	.
16c\	.
16f\JJ	.
=51	=51
16B-\LL	4dd/ 4b-/
16c\	.
16d\	.
16e->\JJ	.
16f>\LL	4bb-/ 4dd/
16g>\	.
16a-X>\	.
16b->\JJ	.
.	8qqbb-/
4f>\	8ccc/L
.	16bb-/L
.	16ccc/JJ
=52	=52
4b->\	4bb-/
4B->\	16bb-/LL
.	16aa-X/
.	16gg/
.	16ff/JJ 16dd/
4r	16b-/LL
.	16a-/
.	16f/
.	16d/JJ
=53	=53
16F\LL	8A-/L
16E-\	.
16D\	8a-/J 8f/
16C\JJ	.
16BB-/LL	2a-/ 2f/
16C/	.
16D/	.
16E-/JJ	.
16F\LL	.
16G\	.
16A-X\	.
16B-\JJ	.
=54	=54
16G\LL	8g/L 8e-/
16F\	.
16E-\	8ee-/J 8g/
16D\JJ	.
16E-\LL	2ee-/ 2g/
16F\	.
16G\	.
16A-\JJ	.
16B-\LL	.
16c\	.
16d\	.
16e-\JJ	.
=55	=55
16f>\LL	8b-/L
16e->\	.
16d>\	8aa-X/J 8ff/
16c>\JJ	.
16B->\LL	2aa-/ 2ff/
16c>\	.
16d>\	.
16e->\JJ	.
16f>\LL	.
16g>\	.
16a-X>\	.
16b->\JJ	.
=56	=56
16g1>\LL	8gg/L 8ee-/
16f>\	.
16e->\	8eee-/J 8gg/
16d>\JJ	.
16e->\LL	2eee-\ 2gg\
16f>\	.
16g>\	.
16a->\JJ	.
16b->\LL	.
16cc>\	.
16dd>\	.
16ee->\JJ	.
!!LO:LB:g=original
=57	=57
2b->\ 2B-\	16fff\LL
.	16eee-\
.	16ddd\
.	16eee-\JJ
.	16fff\LL
.	16eee-\
.	16ddd\
.	16fff\JJ
4a->\ 4A-X\	16ddd\LL
.	16ccc\
.	16bbn\
.	16ccc\JJ
=58	=58
2g>\ 2G\	16ccc\LL
.	16bb-\
.	16aan\
.	16bb-\JJ
.	16eee-\LL
.	16bb-\
.	16aa-X\
.	16bb-\JJ
4f>\ 4F\	16bb-\LL
.	16aa-\
.	16gg\
.	16aa-\JJ
=59	=59
4e->\	16aa-/LL
.	16gg/
.	16bb-/
.	16gg/JJ
4g>\	4ee-/
4b->\	4ff/
=60	=60
.	8qqff/
4e->\	2.ee-/
4B-\	.
4E-\	.
=61:|!|:;	=61:|!|:;
*clefF4	*clefG2
*k[b-e-a-]	*k[b-e-a-]
*M3/4	*M3/4
!	!LO:TX:rj:a:t=Vari&colon;3tio
2E-\	8.ee-/L 8.g/
.	16gg/Jk 16b-/
.	8ee-/L 8g/
.	8b-/ 8g/
4BB-/	8a-/ 8f/
.	8f/J 8d/
!!LO:PB:g=original
=62	=62
2E-/ 2EE-/	8g/L 8e-/
.	8gg/ 8ee-/
.	8ee-/ 8b-/
.	8b-/ 8g/
4BB-/	8a-/ 8f/
.	8f/J 8d/
=63	=63
4E-\	8g/L 8e-/
.	8b-/ 8g/
4G\	8ee-/ 8g/
.	8gg/ 8b-/
4B-\	8ff/ 8a-/
.	8dd/J 8f/
=64	=64
4E-\	4dd/ 4a-/ 4f/
!	!LO:TX:a:t=P:problem=mixed beam
4EE-/	8ee-\L
.	8e-/
4r	8g/
.	8b-/J
=65	=65
4B-\	(8ee-\L
.	8dd\J)
!LO:N:vis:x	!
4BB-/	8r
.	8dd\
4A-\ 4AA-\	8r
.	8aa-\ 8cc\ 8a-\
=66	=66
4G\	(8cc\L
.	8b-\J)
4GG/	8r
.	8b-\
4F\ 4BB-\	8r
.	8ff/ 8a-/ 8f/
=67	=67
4E-\	4gg\ 4b-\ 4g\
4A-\	4ff\ 4a-\ 4f\
4An\	4ee-\ 4g\ 4e-\
=68	=68
4B-\	(>2ee-/ 2g/ 2e-/
4F\	.
4BB-/	4dd/ 4f/ 4d/)
!!LO:LB:g=original
=69:|!|:;	=69:|!|:;
4B-\	8.bb-\L 8.dd\
.	16ddd\Jk 16ff\
4d\	8bb-\L 8dd\
.	8ff\ 8dd\
4f\	8ee-\ 8cc\
.	8cc\J 8an\
=70	=70
4B-\	8dd\L 8b-\
.	8ddd\ 8bb-\
4d\	8bb-\ 8ff\
.	8ff\ 8dd\
4f\	8ee-\ 8cc\
.	8cc\J 8an\
=71	=71
4B-\	8dd\L 8b-\
.	8ff\ 8dd\
4d\	8bb-\ 8dd\
.	8ddd\ 8ff\
4f\	8ccc\ 8ee-\
.	8aan\J 8cc\
=72	=72
4B-\	4aan\ 4cc\
4BB-/	8bb-\L
.	8b-\
4r	8cc\
.	8b-\J
=73	=73
8B-\L	16g/LL
.	16a-/
8d\J	16g/
.	16a-/JJ
*rep	*
8B-\L	16ff\LL
.	16ee-\
8d\J	16dd\
.	16cc\JJ
*Xrep	*
*rep	*
8B-\L	16b-\LL
.	16a-\
8d\J	16g\
.	16a-\JJ
*Xrep	*
=74	=74
8B-\L	16g\LL
.	16b-\
8e-\J	16cc\
.	16dd\JJ
*rep	*
8B-\L	16ee-\LL
.	16ff\
8e-\J	16gg\
.	16aa-\JJ
*Xrep	*
*rep	*
8B-\L	16bb-\LL
.	16ccc\
8e-\J	16ddd\
.	16eee-\JJ
*Xrep	*
!!LO:LB:g=original
=75	=75
8B-\L	16gg\LL
.	16aa-X\
8d\J	16gg\
.	16aa-\JJ
*rep	*
8B-\L	16fff\LL
.	16eee-\
8d\J	16ddd\
.	16ccc\JJ
*Xrep	*
*rep	*
8B-\L	16bb-\LL
.	16aa-\
8d\J	16gg\
.	16ff\JJ
*Xrep	*
=76	=76
4g>\ 4e->\	16gg\LL
.	16aa-\
.	16bb-\
.	16aa-\JJ
4g>\ 4e->\	16gg\LL
.	16aa-\
.	16aan\
.	16bb-\JJ
4g>\ 4e->\	16bbn\LL
.	16ccc\
.	16ccc#X\
.	16ddd\JJ
=77	=77
4b->\	8eee-/L
.	8ddd/J
4B->\	8r
.	8ddd/
4a-X>\ 4A-X\	16bbn/LL
.	16ccc/
.	16bb/
.	16ccc/JJ
=78	=78
4g>\	8ccc/L
.	8bb-X/J
4G/	8r
.	8bb-/
4f>\ 4B-\	16gg/LL
.	16aa-/
.	16gg/
.	16aa-/JJ
=79	=79
4e->\	16bb-/LL 16gg/
.	16ccc/ 16aa-/
.	16bb-/ 16gg/
.	16aa-/JJ 16ff/
4b->\	4gg/ 4ee-/
4B->\	4ff/ 4dd/
=80	=80
4e->\	2ff/ 2dd/
4B-\	.
4E-\	4ee-/
!!LO:LB:g=original
=81:|!|:;	=81:|!|:;
*clefF4	*clefG2
*k[b-e-a-]	*k[b-e-a-]
*M3/4	*M3/4
!	!LO:TX:rj:a:t=Vari 4tio
4B-\ 4G\ 4E-\	16ee-\LL
.	16dd\
.	16ff\
.	16ee-\JJ
4r	16gg\LL
.	16ee-\
.	16b-\
.	16g\JJ
4B-\ 4F\ 4BB-\	16b-/LL
.	16a-/
.	16g/
.	16f/JJ
=82	=82
4B-\ 4G\ 4E-\	16e-/LL
.	16g/
.	16b-/
.	16ee-/JJ
4r	16ff\LL
.	16ee-\
.	16gg\
.	16gg\JJ 16ee-\
4B-\ 4F\ 4BB-\	16b-/LL
.	16a-/
.	16g/
.	16f/JJ
=83	=83
4E-\	16e-/LL
.	16g/
.	16b-/
.	16ee-/JJ
4G\	16gg\LL
.	16ee-\
.	16b-\
.	16g\JJ
4B-\	16b-/LL
.	16a-/
.	16g/
.	16f/JJ
=84	=84
4E-\	4e-/
4EE-/	8r
.	8e-/L
4r	8g/
.	8b-/J
*clefG2	*
=85	=85
4b-/	16dd\LL
.	16ee-\
.	16dd\
.	16ee-\JJ
4B-/	16gg\LL
.	16ff\
.	16ee-\
.	16dd\JJ
4a-X/ 4A-/	16cc\LL
.	16ccc\
.	16cc\
.	16ccc\JJ
!!LO:LB:g=original
=86	=86
4g/	16an/LL
.	16b-/
.	16a/
.	16b-/JJ
4G/	16cc/LL
.	16b-/
.	16a/
.	16b-/JJ
!	!LO:TX:a:t=P:problem=mixed beam
4f/ 4B-/	16a-X/LL
.	16aa-\
.	16a-/
.	16aa-\JJ
=87	=87
16e-/LL	16gg\LL
16f/	16aa-\
16g/	16bb-\
16f/JJ	16aa-\JJ
16e-/LL	16gg\LL
16d/	16ff\
16c/	16ee-\
16B-/JJ	16dd\JJ
*clefF4	*
16A-\LL	16cc/LL
16G\	16b-/
16F\	16a-/
16E-\JJ	16g/JJ
=88	=88
4B-\	8b-/L 8g/
.	8g/J 8e-/
4BB-/	4f/ 4d/
4r	4r
=89:|!|:;	=89:|!|:;
2d\ 2B-\	16bb-\LL
.	16aan\
.	16ccc\
.	16bb-\JJ
.	16ddd\LL
.	16bb-\
.	16ff\
.	16dd\JJ
4e-\ 4c\	16ff\LL
.	16ee-\
.	16dd\
.	16cc\JJ
=90	=90
2d\ 2B-\	16b-\LL
.	16dd\
.	16ff\
.	16bb-\JJ
.	16ccc\LL
.	16bb-\
.	16ddd\
.	16bb-\JJ
4f\ 4A-\ 4F\	16ff\LL
.	16ee-\
.	16dd\
.	16cc\JJ
=91	=91
*^	*
2d\ 2B-\	2f>\	16b-\LL
.	.	16dd\
.	.	16ff\
.	.	16bb-\JJ
.	.	16ccc\LL
.	.	16bb-\
.	.	16ddd\
.	.	16bb-\JJ
4A-\ 4F\	4f>\	16ff\LL
.	.	16ee-\
.	.	16dd\
.	.	16cc\JJ
!!LO:PB:g=original
=92	=92	=92
2ryy	4B-\	16b-\LL
.	.	16dd\
.	.	16ff\
.	.	16bb-\JJ
.	4d\	16ddd\LL
.	.	16bb-\
.	.	16ff\
.	.	16dd\JJ
!LO:N:vis:x	!	!
4G\	4f>\	16ff/LL
.	.	16ee-/
.	.	16dd/
.	.	16cc/JJ
*v	*v	*
=93	=93
4B-\	4b-/
4BB-/	8r
.	8b-/L
4r	8cc/
.	8b-/J
=94	=94
!	!LO:TX:a:t=P:problem=mixed beam
16B-\LL	8a-X/L
16f\	.
16B-\	16ddd\L
16f\JJ	16eee-\JJ
*rep	*
16B-\LL	16fff\LL
16f\	16eee-\
16B-\	16ddd\
16f\JJ	16ccc\JJ
*Xrep	*
*rep	*
16B-\LL	16bb-\LL
16f\	16aa-\
16B-\	16gg\
16f\JJ	16aa-\JJ
*Xrep	*
=95	=95
4e->\	16bb-\LL
.	16aa-\
.	16gg\
.	16ff\JJ
4r	16ee-\LL
.	16dd\
.	16cc\
.	16b-\JJ
4r	16a-/LL
.	16g/
.	16f/
.	16e-/JJ
=96	=96
!	!LO:TX:a:t=P:problem=mixed beam
16BB-\LL	8d/L
16F\	.
16D\	16dd\L
16F\JJ	16ee-\JJ
*rep	*
16BB-\LL	16ff\LL
16F\	16ee-\
16D\	16dd\
16F\JJ	16cc\JJ
*Xrep	*
*rep	*
16BB-\LL	16b-\LL
16F\	16a-\
16D\	16g\
16F\JJ	16a-\JJ
*Xrep	*
=97	=97
4E-\	16g/LL
.	16a-/
.	16b-/
.	16a-/JJ
4r	16g/LL
.	16a-/
.	16b-/
.	16cc/JJ
4r	16dd\LL
.	16ee-\
.	16ff\
.	16gg\JJ
!!LO:LB:g=original
=98	=98
4B-\	16dd\LL
.	16ee-\
.	16dd\
.	16ee-\JJ
4BB-/	16gg\LL
.	16ff\
.	16ee-\
.	16dd\JJ
4A-X\ 4AA-X\	16cc\LL
.	16ccc\
.	16cc\
.	16ccc\JJ
=99	=99
4G\	16an\LL
.	16b-\
.	16a\
.	16b-\JJ
4GG/	16cc\LL
.	16b-\
.	16a\
.	16b-\JJ
4F\ 4BB-\	16a-X\LL
.	16aa-\
.	16a-\
.	16aa-\JJ
=100	=100
4E-\	16g\LL
.	16b-\
.	16ee-\
.	16gg\JJ
4G\	8bb-\L 8gg\
.	8ccc\ 8aa-\
4B-\	8aa-\ 8ff\
.	8ff\J 8dd\
=101	=101
4E-\	2ff\ 2dd\
4BB-/	.
4EE-/	4gg\ 4ee-\
=102:|!|:;	=102:|!|:;
*clefF4	*clefG2
*k[b-e-a-]	*k[b-e-a-]
*M3/4	*M3/4
!	!LO:TX:rj:a:t=Vari&colon; 5ta
8g>\L	8.bb-/L
8b->\J	.
.	16gg/Jk
8g>\L	8ee-/L
8b->\J	8ee-/J
8a->\L	8ff/L
8b->\J	16ee-/L
.	16ff/JJ
!!LO:LB:g=original
=103	=103
8g>\L	16ff#X/LL
.	16gg/
8b->\J	16bb-/
.	16gg/JJ
8g>\L	8ee-/L
8b->\J	8ee-/J
.	8qqgg/
8a->\L	8ff#/L
8b->\J	16ee-/L
.	16ff#/JJ
=104	=104
8g>\L	16gg/LL
.	16bb-/JJ
*	*Xtuplet
8b->\J	24eee-/LL
.	24bb-/
.	24gg/JJ
8g>\L	8ee-/L
8b->\J	8ee-/J
.	8qqgg/
8a->\L	8ff/L
8b->\J	16ee-/L
.	16ff/JJ
=105	=105
4g>\	4ee-/
4e->\	8r
.	8ee-\
4r	8gg\L
.	8bb-\J
=106	=106
!LO:TX:a:t=P:problem=mixed beam	!
16BB-/LL	8eee-\ 8ee-\
16B-\	.
16An\	4ddd\ 4dd\
16B-\JJ	.
*rep	*
16BB-\LL	.
16B-\	.
16A\	4ddd\ 4dd\
16B-\JJ	.
*Xrep	*
!LO:TX:a:t=P:problem=mixed beam	!
16AA-X/LL	.
16A-X\	.
16G\	8ccc\ 8cc\
16A-\JJ	.
=107	=107
!LO:TX:a:t=P:problem=mixed beam	!
16GG/LL	8ccc\ 8cc\
16G\	.
16F#X\	4bb-\ 4b-\
16G\JJ	.
*rep	*
16GG\LL	.
16G\	.
16F#\	4bb-\ 4b-\
16G\JJ	.
*Xrep	*
16FFn\LL	.
16F#\	.
16E-\	8aa-\ 8a-\
16F#\JJ	.
=108	=108
2E-\	8ee-/L 8g/
.	8gg/J 8b-/
.	8ee-/L 8g/
.	8b-/ 8g/
4r	8b-/ 8g/
.	8g/J 8e-/
!!LO:LB:g=original
=109	=109
2B-\ 2BB-\	4g/ 4e-/
.	16a-/LL 16f/
.	16g/ 16e-/
.	16f/ 16d/
.	16g/JJ 16e-/
4r	4f/ 4d/
=110:|!|:;	=110:|!|:;
8d>\L	8.ff/L
8f>\J	.
.	16dd/Jk
8d>\L	8b-/L
8f>\J	8b-/J
.	8qqcc/
8e->\L	8b-/L
8f>\J	16a-/L
.	16b-/JJ
=111	=111
8d>\L	16cc#X/LL
.	16dd/
8f>\J	16ff/
.	16dd/JJ
8d>\L	8b-/L
8f>\J	8b-/J
.	8qqdd/
8e->\L	8ccn/L
8f>\J	16b-/L
.	16cc/JJ
=112	=112
8d>\L	16dd/LL
.	16ff/JJ
8f>\J	24bb-/LL
.	24ff/
.	24dd/JJ
8d>\L	8b-/L
8f>\J	8b-/J
.	8qqdd/
8e->\L	8cc/L
8f>\J	16b-/L
.	16cc/JJ
=113	=113
4d>\	4b-/
4B-\	8r
.	8cc/L
4r	8b-/
.	8an/J
=114	=114
*Xtuplet	*
*	*^
12B-\L	8.a-X/L	2ryy
12d>\	.	.
12f>\J	.	.
.	16aa-X/Jk 16ff/	.
*rep	*	*
12B-\L	4.aa-/ 4.ff/	.
12d>\	.	.
12f>\J	.	.
*Xrep	*	*
*rep	*	*
12B-\L	.	8ryy
12d>\	.	.
.	8ff/	8dd\
12f>\J	.	.
*Xrep	*	*
!!LO:LB:g=original
=115	=115	=115
12B-\L	8gg/L 8ee-/	2ryy
12e->\	.	.
.	8eee-/J 8gg/	.
12g>\J	.	.
*rep	*	*
12B-\L	4.eee-/ 4.gg/	.
12e->\	.	.
12g>\J	.	.
*Xrep	*	*
*rep	*	*
12B-\L	.	8ryy
12e->\	.	.
.	8gg/	8ee-\
12g>\J	.	.
*Xrep	*	*
*	*v	*v
=116	=116
12B->\L	8bb-/L 8gg/
12d>\	.
.	8aa-/J 8ff/
12f>\J	.
*Xrep	*
*rep	*
12B->\L	4dd/ 4a-/
12d>\	.
12f>\J	.
*rep	*
12B->\L	4dd/ 4a-/
12d>\	.
12f>\J	.
*Xrep	*
=117	=117
12B->\L	16ff/LL
.	16ee-/
12e->\	.
.	16dd/
12g>\J	.
.	16ee-/JJ
4e->\	8r
.	8ee-/L
4r>	8gg/
.	8bb-/J
=118	=118
16B-\LL	8eee-/ 8ee-/
16b->\	.
16an>\	4ddd/ 4dd/
16b->\JJ	.
*rep	*
16B-\LL	.
16b->\	.
16a>\	4ddd/ 4dd/
16b->\JJ	.
*Xrep	*
!LO:TX:a:t=P:problem=mixed beam	!
16A-X/LL	.
16a-X>\	.
16g>\	8ccc/ 8cc/
16a->\JJ	.
=119	=119
!LO:TX:a:t=P:problem=mixed beam	!
16G/LL	8ccc/ 8cc/
16g>\	.
16f#X>\	4bb-/ 4b-/
16g>\JJ	.
*rep	*
16G\LL	.
16g>\	.
16f#>\	4bb-/ 4b-/
16g>\JJ	.
*Xrep	*
16Fn\LL	.
16f#>\	.
16e->\	8aa-X/ 8a-X/
16f#>\JJ	.
=120	=120
4e->\ 4E-\	16r
.	16g/LL
.	16b-/
.	16ee-/JJ
4B-\	8gg/L 8b-/
.	8aa-/J 8cc/
4BB-/	8ff\L 8a-\
.	8dd\J 8f\
=121	=121
4E-\	2dd/ 2f/
4BB-/	.
4EE-/	4ee-/ 4g/
!!LO:PB:g=original
=122:|!|:;	=122:|!|:;
*clefF4	*clefG2
*k[b-e-a-]	*k[b-e-a-]
*M3/4	*M3/4
!	!LO:TX:rj:a:t=Vari 6.ta&colon;
32ee->\LLL	16ryy
32gg>\JJJ	.
16ryy	32gg/LLL
.	32bb-/JJJ
32gg>\LLL	16ryy
32bb->\JJJ	.
16ryy	32bb-/LLL
.	32eee-/JJJ
32ee->\LLL	16ryy
32gg>\JJJ	.
16ryy	32gg/LLL
.	32bb-/JJJ
32gg>\LLL	16ryy
32bb->\JJJ	.
16ryy	32bb-/LLL
.	32eee-/JJJ
32cc>\LLL	16ryy
32ee->\JJJ	.
16ryy	32dd/LLL
.	32ff/JJJ
32ee->\LLL	16ryy
32gg>\JJJ	.
16ryy	32dd/LLL
.	32ff/JJJ
=123:|!	=123:|!
32ee->\LLL	16ryy
32gg>\JJJ	.
16ryy	32gg/LLL
.	32bb-/JJJ
32b->\LLL	16ryy
32ee->\JJJ	.
16ryy	32ee-/LLL
.	32gg/JJJ
32g>\LLL	16ryy
32b->\JJJ	.
16ryy	32b-/LLL
.	32ee-/JJJ
32e->\LLL	16ryy
32g>\JJJ	.
16ryy	32g/LLL
.	32b-/JJJ
32f>\LLL	16ryy
32a->\JJJ	.
16ryy	32a-/LLL
.	32dd/JJJ
32d>\LLL	16ryy
32f>\JJJ	.
16ryy	32f/LLL
.	32a-/JJJ
!!LO:LB:g=original
=124	=124
4B-\	16r
.	16b-/LL 16g/
.	16g/ 16e-/
.	16b-/JJ 16g/
4AA-/	16r
.	16a-/LL 16f/
.	16f/ 16d/
.	16a-/JJ 16f/
4E-\	16e-/LL
.	16g/
.	16b-/
.	16ee-/JJ
=125	=125
!LO:TX:a:t=P:problem=mixed beam	!
8B->\L	16ee-/KL
.	8dd/
8b->\	.
.	8dd/
8B->\	.
.	8ddd/
8b->\	.
.	16dd/Jk
8A-/	16dd/LL
.	16cc/
8a->\J	16bn/
.	16cc/JJ
=126	=126
!LO:TX:a:t=P:problem=mixed beam	!
8G/L	16cc/KL
.	8b-/
8g>\	.
.	8b-/
8G/	.
.	8bb-/
8g>\	.
.	16b-/Jk
8F/	16b-/LL
.	16a-/
8f>\J	16g/
.	16a-/JJ
=127	=127
2e->\ 2E-\	16b-/LL
.	16ee-/
.	16gg/
.	16ee-/JJ
.	8b-/L 8g/
.	8a-/ 8f/
4r	8a-/ 8f/
.	8g/J 8e-/
=128	=128
2B-\ 2BB-\	8b-/L 8g/
.	8g/J 8e-/
.	8b-/L 8g/
.	8g/J 8e-/
4r	4f/ 4d/
!!LO:LB:g=original
=129:|!|:	=129:|!|:
!LO:SIC:o:s:t:=:v:wykreślona pięciolinia	!
32b->\LLL	16ryy
32dd>\JJJ	.
16ryy	32dd/LLL
.	32ff/JJJ
32dd>\LLL	16ryy
32ff>\JJJ	.
16ryy	32ff/LLL
.	32bb-/JJJ
32b->\LLL	16ryy
32dd>\JJJ	.
16ryy	32dd/LLL
.	32ff/JJJ
32dd>\LLL	16ryy
32ff>\JJJ	.
16ryy	32ff/LLL
.	32bb-/JJJ
32g>\LLL	16ryy
32an>\JJJ	.
16ryy	32a-/LLL
.	32cc/JJJ
32a>\LLL	16ryy
32cc>\JJJ	.
16ryy	32cc/LLL
.	32ee-/JJJ
=130:|!	=130:|!
32b->\LLL	16ryy
32dd>\JJJ	.
16ryy	32dd/LLL
.	32ff/JJJ
32g>\LLL	16ryy
32b->\JJJ	.
16ryy	32b-/LLL
.	32dd/JJJ
32d>\LLL	16ryy
32f>\JJJ	.
16ryy	32f/LLL
.	32b-/JJJ
32B->\LLL	16ryy
32d>\JJJ	.
16ryy	32d/LLL
.	32f/JJJ
32c>\LLL	16ryy
32f>\JJJ	.
16ryy	32e-/LLL
.	32f/JJJ
32An\LLL	16ryy
32c\JJJ	.
16ryy	32c/LLL
.	32e-/JJJ
!!LO:LB:g=original
=131	=131
!LO:TX:a:t=P:problem=mixed beam	!
8BB-/L	8B-/
8B-\	8r
8BB-/	4r
8B-\	.
8BB-/	4r
8B-\J	.
=132	=132
!LO:TX:a:t=P:problem=mixed beam	!
8BB-/L	8ff/L 8a-X/ 8f/
8B-\J	8ee-/J 8g/ 8e-/
*rep	*
!LO:TX:a:t=P:problem=mixed beam	!
8BB-/L	4.ee-/ 4.g/ 4.e-/
8B-\J	.
*Xrep	*
*rep	*
!LO:TX:a:t=P:problem=mixed beam	!
8BB-/L	.
8B-\J	8dd/ 8f/ 8d/
*Xrep	*
=133	=133
*rep	*
!LO:TX:a:t=P:problem=mixed beam	!
8BB-/L	8gg/L 8b-/ 8g/
8B-\J	8ff/J 8a-/ 8f/
*Xrep	*
*rep	*
!LO:TX:a:t=P:problem=mixed beam	!
8BB-/L	8ff/L 8a-/ 8f/
8B-\J	8ee-/J 8g/ 8e-/
*Xrep	*
*rep	*
!LO:TX:a:t=P:problem=mixed beam	!
8BB-/L	4ee-/ 4g/ 4e-/
8B-\J	.
*Xrep	*
=134	=134
*rep	*
!LO:TX:a:t=P:problem=mixed beam	!
8BB-/L	8aa-\L 8ff\
8B-\J	8gg\J 8ee-\
*Xrep	*
*rep	*
!LO:TX:a:t=P:problem=mixed beam	!
8BB-/L	4.gg\ 4.ee-\
8B-\J	.
*Xrep	*
*rep	*
!LO:TX:a:t=P:problem=mixed beam	!
8BB-/L	.
8B-\J	8ff\ 8dd\
*Xrep	*
=135	=135
*rep	*
!LO:TX:a:t=P:problem=mixed beam	!
8BB-/L	8bb-\L 8gg\
8B-\J	8aa-\ 8ff\
*Xrep	*
*rep	*
!LO:TX:a:t=P:problem=mixed beam	!
8BB-/L	8aa-\ 8ff\
8B-\J	8gg\J 8ee-\
*Xrep	*
*rep	*
!LO:TX:a:t=P:problem=mixed beam	!
8BB-/L	4gg\ 4ee-\
8B-\J	.
*Xrep	*
=136	=136
8B->\L	16ee-/KL
.	8dd/
8b->\	.
.	8dd/
8B->\	.
.	8ddd/
8b-\J	.
.	16dd/Jk
!LO:TX:a:t=P:problem=mixed beam	!
8A->/L	16dd/LL
.	16cc/
8a->\J	16bn/
.	16cc/JJ
!!LO:LB:g=original
=137	=137
!LO:TX:a:t=P:problem=mixed beam	!
8G/L	16cc/KL
.	8b-/
8g>\	.
.	8b-/
8G/	.
.	8bb-/
8g>\J	.
.	16b-/Jk
!LO:TX:a:t=P:problem=mixed beam	!
8F/L	16b-/LL
.	16a-/
8f>\J	16g/
.	16a-/JJ
=138	=138
*	*^
4e->\	16b-/LL	4b-\
.	16ee-/	.
.	16gg/	.
.	16ee-/JJ	.
.	8qqdd/	8qqb-\
4A-\	8cc/L	8a-\L
.	16b-/L	16f\L
.	16a-/JJ	16f\JJ
4B-\	8g/L	8e-\L
.	8f/J	8d\J
=139	=139	=139
.	8qqf/	8qqd\
4E-\	2.g/	2.e-\
4BB-/	.	.
4EE-/	.	.
*	*v	*v
=:|!|:;	=:|!|:;
*-	*-
!!!system-decoration: s1,s2
!!!RDF**kern: > = above
!!!RDF**kern: < = below
!!!EED: Leszek Kubiak
!!!EEV: 2020-12-08
!!!ENC: Anastazja Marusiak
!!!END: 2020-06-19
!!!YEC: Copyright 2022 Narodowy Instytut Fryderyka Chopina (https://polishscores.org)
!!!YEM: License CC-BY-4.0 (https://creativecommons.org/licenses/by/4.0)
